X: 25697
T: Martyn Bennett's
R: reel
M: 4/4
K: Bminor
B3A B2AB|d3f edBA|d3d- dcde|fefA B2dc|
ABBA B2AB|d3f edBA|d3d- dcde|fefA B2ef|
gfed cdec|Addc d2ef|gfeaf2dc|Bcde f3a|
gfed cdec|Addc d2ef|gfeaf2dc|Bcde fefA||

